X:1
T:Easter Elchies
T:Easter Elchies
T:William Marshall
C:William Marshall
L:1/8
Q:1/8=232
M:4/4
K:F
V:1 treble 
V:1
|: C | F2 Fd cA GA | F2 FA cf ag | fd cA GF DG | FC DE F2 FC | F2 Fd cA GA | F2 FA cf ag | %7
 fd cA GF DG | FC DE F2 Fa | fc fg/a/ gd de | fc fg/a/ cf af | bg af gf dg | fc de f2 fa | %13
 fc fg/a/ gd de | fa df cf Ac | BG AF GA Bd | FC DE F2 F :| %17

